X:190
T:Polska efter C A Lindblom
R:sl\"angpolska
H:jfr #54
A:\"Osterg\"otland
B:Version 1: C A Lindblom 11
B:Version 2, 3: Bagge 73, 60
B:Version 4: R\"a\"af 16 (Sumlen 1976)
Z:id:hn-sp-190
M:3/4
L:1/16
K:G
d2ef g2g2 f2f2 | e2e2 d4 d4 | B2AB c2c2 B2B2 | A2A2 G4 G4 :|
|: G2B2 B2AB A4 | A2c2 c2Ac B4 | B2d2 d2Bd c4 | c2e2 e2ce d4 |
d2ef g2g2 f2f2 | e2e2 d4 d4 | B2AB c2c2 B2B2 | A2A2 G4 G4 :|
P:version 2
d2(ef) g2g2 f2f2 | (ef)ge d6 c2 | B2(AB) c2(Ac) B2(GB) |
(BA)GF G2D2 B,2G,2 | d2(ef) g2g2 f2f2 | (ef)ge d6 c2 |
B2(AB) (cB)ce d2B2 | (dc)AF G4 g4 :||: G3B B6 G2 | A3c c6 A2 |
B3d d6 B2 | (cB)ce g2e2 d4 | d2(ef) g2g2 f2f2 | (ef)ge d6 c2 |
B2(AB) (cB)ce d2B2 | (dc)AF G4 g4 :|
P:version 3
|: d4 g4 f3f | e3e d4 z4 | d4 c4 B3B | A3A G4 z4 :| G3B B3A A4 |
A3c c3B B4 | B3d d2c2 c2c2 | c3e e2d2 d2d2 | d4 g4 f3f |
e3e d4 z4 | B4 c4 B3B | A3A G4 z4 ||
P:version 4
K:A
e2fg a2a2 g2g2 | f2ef e8 | c2Bc d2d2 c2c2 | B2AB A8 :|
|: A2c2 c2B2 B4 | B2d2 d2c2 c4 | c2e2 e2d2 d4 | d2f2 f2e2 e4 |
e2fg a2a2 g2g2 | f2ef e8 | c2Bc d2d2 e2c2 | B2AB A8 :|

